Yaru++/mimetypes/16/html-template.svg

<svg height="16" viewBox="0 0 4.233125 4.233125" width="16" xmlns="http://www.w3.org/2000/svg" xmlns:xlink="http://www.w3.org/1999/xlink"><linearGradient id="a" gradientUnits="userSpaceOnUse" x1="2.116711" x2="2.116711" y1=".26457" y2="3.968555"><stop offset="0" stop-color="#fff"/><stop offset=".125" stop-color="#fff" stop-opacity=".098039"/><stop offset=".92500001" stop-color="#fff" stop-opacity=".098039"/><stop offset="1" stop-color="#fff" stop-opacity=".498039"/></linearGradient><linearGradient id="b" gradientTransform="matrix(0 -.00953618 .00953591 0 -.942985 4.473643)" gradientUnits="userSpaceOnUse" x1="459.03448" x2="35.310345" y1="419.23337" y2="207.36522"><stop offset="0" stop-color="#f2f2f2"/><stop offset="1" stop-color="#f9f9f9"/></linearGradient><path d="m1.3483182.26457027c-.1902366 0-.3444308.00368-.48573253.027388-.1413044.023732-.2826405.073095-.3906566.1808576-.1080135.1077595-.1578348.2495507-.1813736.3911699-.023547.14162183-.026772.29644573-.025848.48728563v.7652908 1.0314115c-.0007937.1900038.00238.3445631.025848.4857352.023547.1416192.073357.2834104.1813736.3911699.1080161.1077621.2493522.1571389.3906566.1808576.14130173.023732.29549593.027388.48573253.027388h1.5367831c.1902367 0 .3440949-.00362.4852167-.027388.1411245-.023759.2824765-.07353.3901381-.1813739.1076616-.1078441.1571653-.249413.1808576-.3906539.023695-.1412435.027388-.2951308.027388-.4857352v-1.0314109-.7937109l-1.0582809-1.05828133z" opacity=".1"/><path d="m1.3485193.26457027c-.74283143 0-.82275813.076299-.81911763.82063363v1.0313586 1.0313586c-.00365.7443342.076286.8206336.81911763.8206336h1.5364921c.7428341 0 .8191203-.076289.8191203-.8206336v-1.0313586-1.0582813l-.7937109-.79371093z" fill="none" opacity=".2" stroke="#000" stroke-width=".529141"/><path d="m1.3485193.26457027c-.74283143 0-.82275813.076299-.81911763.82063363v1.0313586 1.0313586c-.00365.7443342.076286.8206336.81911763.8206336h1.5364921c.7428341 0 .8191203-.076289.8191203-.8206336v-1.0313586-1.0582813l-.7937109-.79371093z" fill="url(#b)"/><g fill="#6890f5" fill-rule="evenodd"><path d="m1.587569.26457h.26457v3.703984h-.26457z" opacity=".25"/><path d="m2.38128.26457h.26457v3.703984h-.26457z" opacity=".25"/><path d="m3.1749911.90829097v3.05148003c.1087384-.00722.1958137-.02151.2645703-.04599v-2.95949713c-.068757-.024499-.1558346-.03877-.2645703-.0459929z" opacity=".25"/><path d="m1.0584285.27335397c-.10854793.0072-.19567883.021668-.26457033.04599v3.59443653c.068891.024314.1560198.038797.26457033.04599z" opacity=".25"/><path d="m1.587422-3.704131h.26457v3.174844h-.26457z" opacity=".25" transform="rotate(90)"/><path d="m2.381133-3.704131h.26457v3.174844h-.26457z" opacity=".25" transform="rotate(90)"/><path d="m.52980377 3.1748437c-.0001772.1009177.00238.1875434.00722.2645704h3.15830793c.00513-.077024.00796-.1636553.00825-.2645704z" opacity=".25"/><path d="m.53703977.79371087c-.00489.077027-.00741.1636526-.00722.26457033h2.64467163c-.0002646-.10091503-.00312-.18754593-.00825-.26457033z" opacity=".25"/></g><g fill="#5884f4"><path d="m.79378937 2.4116748.77188653-.3249109.070008.217207-.5636564.2190007.5636564.2190007-.070008.2172043-.77188653-.3249108z"/><path d="m1.9540599 3.3917914h-.2746478l.6031489-1.7376422h.2710575z"/><path d="m3.4394926 2.6342658-.7718866.3249108-.070008-.2172043.5636565-.2190007-.5636565-.2190007.070008-.217207.7718866.3249109z"/></g><path d="m2.1167098.26457027v3.70398443h.7683915c.7428341 0 .8190304-.076236.8190304-.8205807v-1.0314115-1.0582813l-.7937109-.79371093z" fill="#fff" opacity=".2"/><path d="m.52928787 2.1165625v1.0314115c-.00365.7443342.076199.8205807.81903033.8205807h1.5367831c.7428341 0 .8190304-.076236.8190304-.8205807v-1.0314115z" fill="#fff" opacity=".2"/><path d="m1.3483182.26457027c-.74283143 0-.82267083.076246-.81903033.82058073v1.0314115 1.0314115c-.00365.7443342.076199.8205807.81903033.8205807h1.5367831c.7428341 0 .8190304-.076236.8190304-.8205807v-1.0314115-1.0582813l-.7937109-.79371093zm0 .2645703h1.5621026l.5291406.52914063v1.0582813 1.0314115c0 .1815667-.00582.3159975-.019631.3984058-.013811.082406-.029841.09959-.034103.1038651-.00426.00426-.021245.020293-.1033491.034103-.082112.013816-.2161962.019636-.3973767.019636h-1.5367834c-.1811777 0-.3153969-.0063-.39788733-.02016-.082493-.013837-.1000155-.029235-.1043809-.033587-.00436-.00437-.019949-.021324-.03359-.1033491-.013625-.08203-.019499-.216564-.018599-.3978899v-.0005292-1.0319062-1.0319274-.0005291c-.0007937-.18132863.00497-.31586003.018599-.39789003.013625-.08203.029222-.098992.03359-.1033491.00436-.00436.02188-.019737.1043809-.033587.08249-.013837.21670963-.02016.39788733-.02016z" fill="url(#a)" opacity=".4"/><path d="m3.7041317 1.3228516v-.2645704l-.7937109-.79371093h-.2645704v.4049434.01553.00833c0 .54761033.073304.63205063.6221715.62936523z" opacity=".2"/><path d="m3.7041317 1.0581807-.7937109-.79361043v.2943847.012832.00688c0 .45177773.020822.48176413.4736364.47954963z" fill="#faf8f6"/></svg>

<?xml version="1.0" encoding="UTF-8" standalone="no"?>
<svg
   xmlns:dc="http://purl.org/dc/elements/1.1/"
   xmlns:cc="http://creativecommons.org/ns#"
   xmlns:rdf="http://www.w3.org/1999/02/22-rdf-syntax-ns#"
   xmlns:svg="http://www.w3.org/2000/svg"
   xmlns="http://www.w3.org/2000/svg"
   xmlns:xlink="http://www.w3.org/1999/xlink"
   xmlns:sodipodi="http://sodipodi.sourceforge.net/DTD/sodipodi-0.dtd"
   xmlns:inkscape="http://www.inkscape.org/namespaces/inkscape"
   height="16"
   viewBox="0 0 4.233125 4.233125"
   width="16"
   version="1.1"
   id="svg39"
   sodipodi:docname="html-template.svg"
   inkscape:version="0.92.5 (2060ec1f9f, 2020-04-08)">
  <metadata
     id="metadata45">
    <rdf:RDF>
      <cc:Work
         rdf:about="">
        <dc:format>image/svg+xml</dc:format>
        <dc:type
           rdf:resource="http://purl.org/dc/dcmitype/StillImage" />
        <dc:title></dc:title>
      </cc:Work>
    </rdf:RDF>
  </metadata>
  <defs
     id="defs43">
    <linearGradient
       gradientTransform="matrix(0.26457031,0,0,0.26457031,-84.662351,-62.438593)"
       inkscape:collect="always"
       xlink:href="#linearGradient927"
       id="linearGradient993"
       x1="328"
       y1="237"
       x2="328"
       y2="251"
       gradientUnits="userSpaceOnUse" />
    <linearGradient
       inkscape:collect="always"
       id="linearGradient927">
      <stop
         style="stop-color:#ffffff;stop-opacity:1;"
         offset="0"
         id="stop923" />
      <stop
         id="stop933"
         offset="0.125"
         style="stop-color:#ffffff;stop-opacity:0.09803922" />
      <stop
         id="stop931"
         offset="0.92500001"
         style="stop-color:#ffffff;stop-opacity:0.09803922" />
      <stop
         style="stop-color:#ffffff;stop-opacity:0.49803922"
         offset="1"
         id="stop925" />
    </linearGradient>
    <linearGradient
       inkscape:collect="always"
       xlink:href="#linearGradient4338"
       id="linearGradient920"
       gradientUnits="userSpaceOnUse"
       gradientTransform="matrix(0,-0.00953618,0.00953591,0,-0.94298533,4.4736432)"
       x1="459.03448"
       y1="419.23337"
       x2="35.310345"
       y2="207.36522" />
    <linearGradient
       inkscape:collect="always"
       id="linearGradient4338">
      <stop
         style="stop-color:#f2f2f2;stop-opacity:1"
         offset="0"
         id="stop4340" />
      <stop
         style="stop-color:#f9f9f9;stop-opacity:1"
         offset="1"
         id="stop4342" />
    </linearGradient>
  </defs>
  <sodipodi:namedview
     pagecolor="#ffffff"
     bordercolor="#666666"
     borderopacity="1"
     objecttolerance="10"
     gridtolerance="10"
     guidetolerance="10"
     inkscape:pageopacity="0"
     inkscape:pageshadow="2"
     inkscape:window-width="834"
     inkscape:window-height="480"
     id="namedview41"
     showgrid="false"
     inkscape:zoom="0.921875"
     inkscape:cx="-88.949153"
     inkscape:cy="128"
     inkscape:window-x="259"
     inkscape:window-y="195"
     inkscape:window-maximized="0"
     inkscape:current-layer="svg39" />
  <linearGradient
     id="a"
     gradientTransform="matrix(0,-0.11988932,0.11988589,0,0.36278,292.5483)"
     gradientUnits="userSpaceOnUse"
     x1="529.65503"
     x2="-35.310001"
     y1="401.58401"
     y2="119.093">
    <stop
       offset="0"
       stop-color="#f2f2f2"
       id="stop2" />
    <stop
       offset="1"
       stop-color="#f9f9f9"
       id="stop4" />
  </linearGradient>
  <linearGradient
     id="b"
     gradientUnits="userSpaceOnUse"
     x1="88"
     x2="488"
     y1="88"
     y2="488">
    <stop
       offset="0"
       stop-opacity=".588235"
       id="stop7" />
    <stop
       offset=".88"
       stop-opacity="0"
       id="stop9" />
    <stop
       offset="1"
       id="stop11" />
  </linearGradient>
  <filter
     id="c"
     height="1.022"
     width="1.026"
     x="-0.0099999998"
     y="-0.0099999998"
     style="color-interpolation-filters:sRGB">
    <feGaussianBlur
       stdDeviation="2.12"
       id="feGaussianBlur14" />
  </filter>
  <path
     style="color:#000000;font-style:normal;font-variant:normal;font-weight:normal;font-stretch:normal;font-size:medium;line-height:normal;font-family:sans-serif;font-variant-ligatures:normal;font-variant-position:normal;font-variant-caps:normal;font-variant-numeric:normal;font-variant-alternates:normal;font-feature-settings:normal;text-indent:0;text-align:start;text-decoration:none;text-decoration-line:none;text-decoration-style:solid;text-decoration-color:#000000;letter-spacing:normal;word-spacing:normal;text-transform:none;writing-mode:lr-tb;direction:ltr;text-orientation:mixed;dominant-baseline:auto;baseline-shift:baseline;text-anchor:start;white-space:normal;shape-padding:0;clip-rule:nonzero;display:inline;overflow:visible;visibility:visible;opacity:0.1;isolation:auto;mix-blend-mode:normal;color-interpolation:sRGB;color-interpolation-filters:linearRGB;solid-color:#000000;solid-opacity:1;vector-effect:none;fill:#000000;fill-opacity:1;fill-rule:nonzero;stroke:none;stroke-width:0.52914065;stroke-linecap:butt;stroke-linejoin:miter;stroke-miterlimit:4;stroke-dasharray:none;stroke-dashoffset:0;stroke-opacity:1;marker:none;color-rendering:auto;image-rendering:auto;shape-rendering:auto;text-rendering:auto;enable-background:accumulate"
     d="m 1.3483182,0.26457027 c -0.1902366,0 -0.3444308,0.00368 -0.48573253,0.027388 -0.1413044,0.023732 -0.2826405,0.073095 -0.3906566,0.1808576 -0.1080135,0.1077595 -0.1578348,0.2495507 -0.1813736,0.3911699 -0.023547,0.14162183 -0.026772,0.29644573 -0.025848,0.48728563 v 0.7652908 1.0314115 c -7.937e-4,0.1900038 0.00238,0.3445631 0.025848,0.4857352 0.023547,0.1416192 0.073357,0.2834104 0.1813736,0.3911699 0.1080161,0.1077621 0.2493522,0.1571389 0.3906566,0.1808576 0.14130173,0.023732 0.29549593,0.027388 0.48573253,0.027388 h 1.5367831 c 0.1902367,0 0.3440949,-0.00362 0.4852167,-0.027388 C 3.5114425,4.1819774 3.6527945,4.1322064 3.7604561,4.0243625 3.8681177,3.9165184 3.9176214,3.7749495 3.9413137,3.6337086 3.9650087,3.4924651 3.9687017,3.3385778 3.9687017,3.1479734 V 2.1165625 1.3228516 L 2.9104208,0.26457027 Z"
     id="path997"
     inkscape:connector-curvature="0"
     sodipodi:nodetypes="scscccccccsscscscccs" />
  <path
     sodipodi:nodetypes="scccssscccs"
     inkscape:connector-curvature="0"
     id="path928"
     d="m 1.3485193,0.26457027 c -0.74283143,0 -0.82275813,0.076299 -0.81911763,0.82063363 v 1.0313586 1.0313586 c -0.00365,0.7443342 0.076286,0.8206336 0.81911763,0.8206336 h 1.5364921 c 0.7428341,0 0.8191203,-0.076289 0.8191203,-0.8206336 V 2.1165625 1.0582812 L 2.9104208,0.26457027 Z"
     style="color:#000000;display:inline;overflow:visible;visibility:visible;opacity:0.2;fill:none;fill-opacity:1;fill-rule:nonzero;stroke:#000000;stroke-width:0.52914065;stroke-miterlimit:4;stroke-dasharray:none;stroke-opacity:1;marker:none;enable-background:accumulate" />
  <path
     style="color:#000000;display:inline;overflow:visible;visibility:visible;fill:url(#linearGradient920);fill-opacity:1;fill-rule:nonzero;stroke:none;stroke-width:0.26457033;marker:none;enable-background:accumulate"
     d="m 1.3485193,0.26457027 c -0.74283143,0 -0.82275813,0.076299 -0.81911763,0.82063363 v 1.0313586 1.0313586 c -0.00365,0.7443342 0.076286,0.8206336 0.81911763,0.8206336 h 1.5364921 c 0.7428341,0 0.8191203,-0.076289 0.8191203,-0.8206336 V 2.1165625 1.0582812 L 2.9104208,0.26457027 Z"
     id="path918"
     inkscape:connector-curvature="0"
     sodipodi:nodetypes="scccssscccs" />
  <rect
     y="0.26457036"
     x="1.587569"
     height="3.7039843"
     width="0.26457033"
     id="rect1033"
     style="display:inline;opacity:0.25;fill:#6890f5;fill-opacity:1;fill-rule:evenodd;stroke:none;stroke-width:0.52914065;stroke-linecap:round;stroke-linejoin:round;stroke-miterlimit:4;stroke-dasharray:none;stroke-opacity:1;enable-background:new" />
  <rect
     style="display:inline;opacity:0.25;fill:#6890f5;fill-opacity:1;fill-rule:evenodd;stroke:none;stroke-width:0.52914065;stroke-linecap:round;stroke-linejoin:round;stroke-miterlimit:4;stroke-dasharray:none;stroke-opacity:1;enable-background:new"
     id="rect1035"
     width="0.26457033"
     height="3.7039843"
     x="2.3812802"
     y="0.26457036" />
  <path
     id="rect1037"
     d="M 3.1749911,0.90829097 V 3.959771 C 3.2837295,3.952551 3.3708048,3.938261 3.4395614,3.913781 V 0.95428387 c -0.068757,-0.024499 -0.1558346,-0.03877 -0.2645703,-0.0459929 z"
     style="display:inline;opacity:0.25;fill:#6890f5;fill-opacity:1;fill-rule:evenodd;stroke:none;stroke-width:0.52914065;stroke-linecap:round;stroke-linejoin:round;stroke-miterlimit:4;stroke-dasharray:none;stroke-opacity:1;enable-background:new"
     inkscape:connector-curvature="0"
     sodipodi:nodetypes="ccccc" />
  <path
     id="rect1039"
     d="m 1.0584285,0.27335397 c -0.10854793,0.0072 -0.19567883,0.021668 -0.26457033,0.04599 V 3.9137805 c 0.068891,0.024314 0.1560198,0.038797 0.26457033,0.04599 z"
     style="display:inline;opacity:0.25;fill:#6890f5;fill-opacity:1;fill-rule:evenodd;stroke:none;stroke-width:0.52914065;stroke-linecap:round;stroke-linejoin:round;stroke-miterlimit:4;stroke-dasharray:none;stroke-opacity:1;enable-background:new"
     inkscape:connector-curvature="0" />
  <rect
     transform="rotate(90)"
     y="-3.7041314"
     x="1.587422"
     height="3.1748438"
     width="0.26457033"
     id="rect1041"
     style="display:inline;opacity:0.25;fill:#6890f5;fill-opacity:1;fill-rule:evenodd;stroke:none;stroke-width:0.52914065;stroke-linecap:round;stroke-linejoin:round;stroke-miterlimit:4;stroke-dasharray:none;stroke-opacity:1;enable-background:new" />
  <rect
     style="display:inline;opacity:0.25;fill:#6890f5;fill-opacity:1;fill-rule:evenodd;stroke:none;stroke-width:0.52914065;stroke-linecap:round;stroke-linejoin:round;stroke-miterlimit:4;stroke-dasharray:none;stroke-opacity:1;enable-background:new"
     id="rect1043"
     width="0.26457033"
     height="3.1748438"
     x="2.3811328"
     y="-3.7041314"
     transform="rotate(90)" />
  <path
     id="rect1045"
     d="m 0.52980377,3.1748437 c -1.772e-4,0.1009177 0.00238,0.1875434 0.00722,0.2645704 H 3.6953317 c 0.00513,-0.077024 0.00796,-0.1636553 0.00825,-0.2645704 z"
     style="display:inline;opacity:0.25;fill:#6890f5;fill-opacity:1;fill-rule:evenodd;stroke:none;stroke-width:0.52914065;stroke-linecap:round;stroke-linejoin:round;stroke-miterlimit:4;stroke-dasharray:none;stroke-opacity:1;enable-background:new"
     inkscape:connector-curvature="0" />
  <path
     id="rect1047"
     d="m 0.53703977,0.79371087 c -0.00489,0.077027 -0.00741,0.1636526 -0.00722,0.26457033 H 3.1744914 C 3.1742268,0.95736617 3.1713714,0.87073527 3.1662414,0.79371087 Z"
     style="display:inline;opacity:0.25;fill:#6890f5;fill-opacity:1;fill-rule:evenodd;stroke:none;stroke-width:0.52914065;stroke-linecap:round;stroke-linejoin:round;stroke-miterlimit:4;stroke-dasharray:none;stroke-opacity:1;enable-background:new"
     inkscape:connector-curvature="0"
     sodipodi:nodetypes="ccccc" />
  <path
     inkscape:connector-curvature="0"
     id="path965"
     style="font-style:normal;font-variant:normal;font-weight:bold;font-stretch:normal;font-size:medium;line-height:125%;font-family:Ubuntu;-inkscape-font-specification:'Ubuntu, Normal';text-align:center;letter-spacing:0px;word-spacing:0px;writing-mode:lr-tb;text-anchor:middle;display:inline;fill:#5884f4;fill-opacity:1;stroke:none;stroke-width:0.2645703px;stroke-linecap:butt;stroke-linejoin:miter;stroke-opacity:1;enable-background:new"
     d="M 0.79378937,2.4116748 1.5656759,2.0867639 1.6356839,2.3039709 1.0720275,2.5229716 1.6356839,2.7419723 1.5656759,2.9591766 0.79378937,2.6342658 Z" />
  <path
     inkscape:connector-curvature="0"
     id="path967-5"
     style="font-style:normal;font-variant:normal;font-weight:bold;font-stretch:normal;font-size:medium;line-height:125%;font-family:Ubuntu;-inkscape-font-specification:'Ubuntu, Normal';text-align:center;letter-spacing:0px;word-spacing:0px;writing-mode:lr-tb;text-anchor:middle;display:inline;fill:#5884f4;fill-opacity:1;stroke:none;stroke-width:0.2645703px;stroke-linecap:butt;stroke-linejoin:miter;stroke-opacity:1;enable-background:new"
     d="M 1.9540599,3.3917914 H 1.6794121 L 2.282561,1.6541492 h 0.2710575 z" />
  <path
     inkscape:connector-curvature="0"
     id="path969-3"
     style="font-style:normal;font-variant:normal;font-weight:bold;font-stretch:normal;font-size:medium;line-height:125%;font-family:Ubuntu;-inkscape-font-specification:'Ubuntu, Normal';text-align:center;letter-spacing:0px;word-spacing:0px;writing-mode:lr-tb;text-anchor:middle;display:inline;fill:#5884f4;fill-opacity:1;stroke:none;stroke-width:0.2645703px;stroke-linecap:butt;stroke-linejoin:miter;stroke-opacity:1;enable-background:new"
     d="M 3.4394926,2.6342658 2.667606,2.9591766 2.597598,2.7419723 3.1612545,2.5229716 2.597598,2.3039709 2.667606,2.0867639 3.4394926,2.4116748 Z" />
  <path
     style="color:#000000;display:inline;overflow:visible;visibility:visible;opacity:0.2;fill:#ffffff;fill-opacity:1;fill-rule:nonzero;stroke:none;stroke-width:0.26457033;marker:none;enable-background:accumulate"
     d="M 2.1167098,0.26457027 V 3.9685547 h 0.7683915 c 0.7428341,0 0.8190304,-0.076236 0.8190304,-0.8205807 V 2.1165625 1.0582812 L 2.9104208,0.26457027 Z"
     id="path1009"
     inkscape:connector-curvature="0"
     sodipodi:nodetypes="ccsscccc" />
  <path
     style="color:#000000;display:inline;overflow:visible;visibility:visible;opacity:0.2;fill:#ffffff;fill-opacity:1;fill-rule:nonzero;stroke:none;stroke-width:0.26457033;marker:none;enable-background:accumulate"
     d="M 0.52928787,2.1165625 V 3.147974 c -0.00365,0.7443342 0.076199,0.8205807 0.81903033,0.8205807 h 1.5367831 c 0.7428341,0 0.8190304,-0.076236 0.8190304,-0.8205807 V 2.1165625 Z"
     id="path1016"
     inkscape:connector-curvature="0" />
  <path
     style="color:#000000;font-style:normal;font-variant:normal;font-weight:normal;font-stretch:normal;font-size:medium;line-height:normal;font-family:sans-serif;font-variant-ligatures:normal;font-variant-position:normal;font-variant-caps:normal;font-variant-numeric:normal;font-variant-alternates:normal;font-feature-settings:normal;text-indent:0;text-align:start;text-decoration:none;text-decoration-line:none;text-decoration-style:solid;text-decoration-color:#000000;letter-spacing:normal;word-spacing:normal;text-transform:none;writing-mode:lr-tb;direction:ltr;text-orientation:mixed;dominant-baseline:auto;baseline-shift:baseline;text-anchor:start;white-space:normal;shape-padding:0;clip-rule:nonzero;display:inline;overflow:visible;visibility:visible;opacity:0.4;isolation:auto;mix-blend-mode:normal;color-interpolation:sRGB;color-interpolation-filters:linearRGB;solid-color:#000000;solid-opacity:1;vector-effect:none;fill:url(#linearGradient993);fill-opacity:1;fill-rule:nonzero;stroke:none;stroke-width:0.52914065;stroke-linecap:butt;stroke-linejoin:miter;stroke-miterlimit:4;stroke-dasharray:none;stroke-dashoffset:0;stroke-opacity:1;marker:none;color-rendering:auto;image-rendering:auto;shape-rendering:auto;text-rendering:auto;enable-background:accumulate"
     clip-path="none"
     d="m 1.3483182,0.26457027 c -0.74283143,0 -0.82267083,0.076246 -0.81903033,0.82058073 V 2.1165625 3.147974 c -0.00365,0.7443342 0.076199,0.8205807 0.81903033,0.8205807 h 1.5367831 c 0.7428341,0 0.8190304,-0.076236 0.8190304,-0.8205807 V 2.1165625 1.0582812 L 2.9104208,0.26457027 Z m 0,0.2645703 H 2.9104208 L 3.4395614,1.0582812 V 2.1165625 3.147974 c 0,0.1815667 -0.00582,0.3159975 -0.019631,0.3984058 -0.013811,0.082406 -0.029841,0.09959 -0.034103,0.1038651 -0.00426,0.00426 -0.021245,0.020293 -0.1033491,0.034103 -0.082112,0.013816 -0.2161962,0.019636 -0.3973767,0.019636 H 1.3483182 c -0.1811777,0 -0.3153969,-0.0063 -0.39788733,-0.02016 -0.082493,-0.013837 -0.1000155,-0.029235 -0.1043809,-0.033587 -0.00436,-0.00437 -0.019949,-0.021324 -0.03359,-0.1033491 -0.013625,-0.08203 -0.019499,-0.216564 -0.018599,-0.3978899 V 3.1484687 2.1165625 1.0846351 1.084106 c -7.937e-4,-0.18132863 0.00497,-0.31586003 0.018599,-0.39789003 0.013625,-0.08203 0.029222,-0.098992 0.03359,-0.1033491 0.00436,-0.00436 0.02188,-0.019737 0.1043809,-0.033587 0.08249,-0.013837 0.21670963,-0.02016 0.39788733,-0.02016 z"
     id="path937"
     inkscape:connector-curvature="0"
     sodipodi:nodetypes="scccssscccsscccscccssccccccccsccs" />
  <path
     inkscape:connector-curvature="0"
     style="color:#000000;display:inline;overflow:visible;visibility:visible;opacity:0.2;fill:#000000;fill-opacity:1;fill-rule:nonzero;stroke:none;stroke-width:0.06614863;marker:none;enable-background:accumulate"
     d="M 3.7041317,1.3228516 V 1.0582812 L 2.9104208,0.26457027 H 2.6458504 v 0.4049434 0.01553 0.00833 c 0,0.54761033 0.073304,0.63205063 0.6221715,0.62936523 z"
     id="rect4158-0-3-62-2-3-7-3"
     sodipodi:nodetypes="ccccccscc" />
  <path
     inkscape:connector-curvature="0"
     style="color:#000000;display:inline;overflow:visible;visibility:visible;fill:#faf8f6;fill-opacity:1;fill-rule:nonzero;stroke:none;stroke-width:0.06614863;marker:none;enable-background:accumulate"
     d="M 3.7041317,1.0581807 2.9104208,0.26457027 v 0.2943847 0.012832 0.00688 c 0,0.45177773 0.020822,0.48176413 0.4736364,0.47954963 z"
     id="rect4158-0-3-62-6-5-5"
     sodipodi:nodetypes="ccccscc" />
</svg>
